X: 1
T: Eamon Kelly's
R: jig
M: 6/8
L: 1/8
K: Gmaj
dgf gdB|ecG dBG|AB^c def|gfe d^ce|
dgf gdB|ecG dBG|AeG Fdc|BGF ~G3||
DFA cEF|Gge dBG|AeB d^cg|fd^c ~d3|
DBD EcE|FdF Gec|AEF Ddc|BGF ~G3||

